!!!!SEGMENT: pl-sa--70-a-ii-10--001_pergolesi-giovanni-battista--stabat-mater-stabat-mater.krn
!!!cenid: 17xx:643
!!!COM: Pergolesi, Giovanni Battista
!!!COM-rismID:
!!!CDT: 1710/01/04-1736/03
!!!CNT: Italian
!!!OPR: Stabat Mater
!!!OTL: Stabat Mater
!!!OMV: 001
!!!PDT:
!!!AGN: Sacred
!!!SMS-siglum: PL-SA
!!!SMS-shelfmark: 70/A II 10
!!!SMS-shelfwork: 001-001 M
!!!SMS-variant:
!!!SMS-altvar:
!!!NIFC-rismSourceID: 1001030091
!!!NIFC-islandoraID:
!!!URL-pdf-islandora:
!!!URL-scan: https://bc.bdsandomierz.pl/dlibra/publication/1341/edition/1309/content @EN{Scan on Cyfrowa Biblioteka Diecezjalna w Sandomierzu} @PL{Skany w portalu Cyfrowa Biblioteka Diecezjalna w Sandomierzu}
!!!ONB-nifc: UWAGA: części Stabat Mater: Stabat Mater, Cuius animam, O quam tristis, Quae moerebat, Quist est homo+Pro peccatis, Vidit suum, Eja mater, Fac ut ardeat, Sancta Mater, Fac ut portem, Inflammatus, Quando corpus+Amen
!!!AIN: 1 alto 1 organ 1 viola 2 violn 1 vox
!!!key:
**kern	**fba	**kern	**kern	**dynam	**kern	**dynam	**kern	**text	**kern	**text
*part6	*	*part5	*part4	*part4	*part3	*part3	*part2	*part2	*part1	*part1
*	*	*group2	*group2	*	*group2	*	*group1	*	*group1	*
*staff6	*	*staff5	*staff4	*	*staff3	*	*staff2	*staff2	*staff1	*staff1
*Iorgan	*	*Iviola	*Ivioln	*	*Ivioln	*	*Ialto	*	*Ivox	*
*I"ORGANO	*	*I"Alto Viola	*I"Violino 2do.	*	*I"Violino 1mo	*	*I"Alto	*	*I"Canto	*
*I'org.	*	*I'a-vla	*I'vl 2	*	*I'vl 1	*	*I'A	*	*I'S	*
*clefF4	*	*clefC3	*clefG2	*	*clefG2	*	*clefC3	*	*clefC1	*
*k[e-b-a-]	*	*k[e-b-a-]	*k[e-b-a-]	*	*k[e-b-a-]	*	*k[e-b-a-]	*	*k[e-b-a-]	*
*f:	*	*f:	*f:	*	*f:	*	*f:	*	*f:	*
*M4/4	*	*M4/4	*M4/4	*	*M4/4	*	*M4/4	*	*M4/4	*
*met(c)	*	*met(c)	*met(c)	*	*met(c)	*	*met(c)	*	*met(c)	*
=1	=1	=1	=1	=1	=1	=1	=1	=1	=1	=1
*	*	*	*2\right	*	*	*	*	*	*	*
!	!	!	!	!	!	!	!	!	!LO:TX:a:t=P:problem=bemole ee- b- a-	!
!LO:TX:b:i:t=Stabat Mater	!	!LO:TX:b:i:t=Stabat Mater	!LO:TX:b:i:t=Stabat Mater	!	!	!	!LO:TX:a:t=11	!	!	!
!	!	!LO:TX:a:i:t=Grave	!LO:TX:a:i:t=Grave	!	!LO:TX:b:i:t=Stabat Mater	!	!LO:TX:a:i:t=Grave	!	!LO:TX:a:i:t=Grave	!
8F\L	.	1r	2.ff\	.	2r	.	00r	.	00r	.
8G\	.	.	.	.	.	.	.	.	.	.
8A-\	6	.	.	.	.	.	.	.	.	.
8F\J	.	.	.	.	.	.	.	.	.	.
*	*	*	*	*	*2\right	*	*	*	*	*
8C\L	5 4	.	.	.	[2gg\	.	.	.	.	.
8D\	.	.	.	.	.	.	.	.	.	.
8En\	6	.	4een\	.	.	.	.	.	.	.
8C\J	.	.	.	.	.	.	.	.	.	.
=2	=2	=2	=2	=2	=2	=2	=2	=2	=2	=2
*	*	*2\right	*	*	*	*	*	*	*	*
8F\L	9	2c\	2.aa-\	.	4gg\]	.	.	.	.	.
8G\	.	.	.	.	.	.	.	.	.	.
8A-\	6	.	.	.	4ff\	.	.	.	.	.
8F\J	.	.	.	.	.	.	.	.	.	.
8E-X\L	5 4	2e-\	.	.	2bb-\	.	.	.	.	.
8F\	.	.	.	.	.	.	.	.	.	.
8G\	6	.	4gg\	.	.	.	.	.	.	.
8E-\J	.	.	.	.	.	.	.	.	.	.
=3	=3	=3	=3	=3	=3	=3	=3	=3	=3	=3
8A-\L	9	4e-\	2.ccc\	.	4bb-\	.	.	.	.	.
8B-\	.	.	.	.	.	.	.	.	.	.
8c\	6	4a-\	.	.	4aa-\	.	.	.	.	.
8A-\J	.	.	.	.	.	.	.	.	.	.
8B-\L	9 3	4f\	.	.	[2ddd-X\	.	.	.	.	.
8c\	.	.	.	.	.	.	.	.	.	.
8d-X\	6	4b-\	4bb-\	.	.	.	.	.	.	.
8B-\J	.	.	.	.	.	.	.	.	.	.
=4	=4	=4	=4	=4	=4	=4	=4	=4	=4	=4
8c\L	9 n3	2g\	2een\	.	4ddd-\]	.	.	.	.	.
8B-\	.	.	.	.	.	.	.	.	.	.
8A-\	.	.	.	.	8ccc\L	.	.	.	.	.
8G\J	.	.	.	.	8bb-\J	.	.	.	.	.
8F\L	.	2c\	4ee-X\	.	4aan\	.	.	.	.	.
8G-X\	.	.	.	.	.	.	.	.	.	.
8F\	.	.	8dd-X\L	.	[4ccc\	.	.	.	.	.
8E-\J	.	.	8cc\J	.	.	.	.	.	.	.
=5	=5	=5	=5	=5	=5	=5	=5	=5	=5	=5
8D-X/L	7	2dn\	4dd\	.	4ccc\]	.	00r	.	00r	.
8C/	.	.	.	.	.	.	.	.	.	.
8D-/	6	.	4ff\	.	4bb-\	.	.	.	.	.
8BB-/J	.	.	.	.	.	.	.	.	.	.
!	!	!	!	!	!LO:TX:a:t=P:problem=mixed beam	!	!	!	!	!
4C/	n	4c\	4een\	.	8g/L	.	.	.	.	.
.	.	.	.	.	8bb-\	.	.	.	.	.
4r	.	4r	4r	.	8gg\	.	.	.	.	.
.	.	.	.	.	8een\J	.	.	.	.	.
!LO:LB:g=original	!	!	!	!	!	!	!	!	!	!
=6	=6	=6	=6	=6	=6	=6	=6	=6	=6	=6
8r	.	8r	8r	.	8c/L	.	.	.	.	.
8C\L	7	8c/L	8g/L	.	8b-/	.	.	.	.	.
*	*	*	*	*	*	*below	*	*	*	*
8C\	6 4	8c/	8f/	.	8a-/	p	.	.	.	.
8C\J	n	8c/J	8e-/J	.	8g/J	.	.	.	.	.
!	!	!	!	!	!LO:TX:a:t=P:problem=mixed beam	!	!	!	!	!
4C\	.	4c/	4f/	.	8a-/L	.	.	.	.	.
.	.	.	.	.	8ccc\	.	.	.	.	.
4r	.	4r	4r	.	8aa-\	.	.	.	.	.
.	.	.	.	.	8ff\J	.	.	.	.	.
=7	=7	=7	=7	=7	=7	=7	=7	=7	=7	=7
!	!	!	!	!	!LO:TX:a:t=P:problem=mixed beam	!	!	!	!	!
8r	.	8r	8r	.	8c/L	.	.	.	.	.
8C/L	8 6	8c/L	8a-/L	.	8cc\	.	.	.	.	.
8C/	7 5	8c/	8g/	.	8b-\	.	.	.	.	.
8C/J	6 4	8c/J	8f/J	.	8a-\J	.	.	.	.	.
!LO:TX:a:t=P:problem=mixed beam	!	!	!LO:TX:a:t=P:problem=mixed beam	!	!LO:TX:a:t=P:problem=mixed beam	!	!	!	!	!
8C/L	n	8c/L	8en/L	.	8g/L	.	.	.	.	.
8B-\	.	8d-X/	8een\J	.	8gg\	.	.	.	.	.
!	!	!	!LO:TX:a:t=P:problem=mixed beam	!	!	!	!	!	!	!
8A-\	6	8c/	8ff\L	.	8aa-\	.	.	.	.	.
8B-\J	.	8d-X/J	8g/J	.	8b-/J	.	.	.	.	.
=8	=8	=8	=8	=8	=8	=8	=8	=8	=8	=8
!LO:TX:a:t=P:problem=mixed beam	!	!	!	!	!	!	!	!	!	!
8c\L	.	2c\	8f/L	.	4a-/	.	.	.	.	.
8c\	.	.	8f/	.	.	.	.	.	.	.
8C/	.	.	8en/	.	4g/	.	.	.	.	.
8C/J	.	.	8e/J	.	.	.	.	.	.	.
8D-X\	.	4d-X\	8r	.	8r	.	.	.	.	.
8r	.	.	8ff\	.	8aa-\	.	.	.	.	.
8AA-/	.	8r	8r	.	8r	.	.	.	.	.
8r	.	8A-/	8ff\	.	8aa-\	.	.	.	.	.
=9	=9	=9	=9	=9	=9	=9	=9	=9	=9	=9
8BB-/	-	8B-/	8r	.	8r	.	0r	.	0r	.
!	!	!	!	!	!LO:TX:a:t=P:problem=mixed beam	!	!	!	!	!
8r	.	8r	8b-/L	.	8dd-X\L	.	.	.	.	.
8C/	n	8c/	8a-/	.	8cc\	.	.	.	.	.
8r	.	8r	8g/J	.	8en/J	.	.	.	.	.
!	!	!	!LO:TX:a:t=P:problem=mixed beam	!	!LO:TX:a:t=P:problem=mixed beam	!	!	!	!	!
8D-X/	.	8d-X/	8f/L	.	8f/L	.	.	.	.	.
8r	.	8r	8ff\J	.	8aa-\J	.	.	.	.	.
8AA-/	.	8A-/	8r	.	8r	.	.	.	.	.
8r	.	8r	8ff\	.	8aa-\	.	.	.	.	.
=10	=10	=10	=10	=10	=10	=10	=10	=10	=10	=10
8BB-/	-	8B-/	8r	.	8r	.	.	.	.	.
!	!	!	!	!	!LO:TX:a:t=P:problem=mixed beam	!	!	!	!	!
8r	.	8r	8b-/L	.	8dd-X\L	.	.	.	.	.
8C/	.	8c/	8a-/	.	8cc\	.	.	.	.	.
8r	.	8r	8g/J	.	8en/J	.	.	.	.	.
!	!	!	!LO:LB:g=original	!	!LO:TX:a:t=P:problem=mixed beam	!LO:DY:t=f&colon;	!	!	!	!
8d-X\L	.	8dd-X\L	8f/L	.	16f/LL	f	.	.	.	.
.	.	.	.	.	16ff\	.	.	.	.	.
8B-\	.	8b-\	8b-/	.	16een\	.	.	.	.	.
.	.	.	.	.	16gg\JJ	.	.	.	.	.
!	!	!	!	!	!LO:LB:g=original	!	!	!	!	!
8A-\	6	8b-\	8a-/	.	16ff\LL	.	.	.	.	.
.	.	.	.	.	16cc\	.	.	.	.	.
8B-\J	.	8b-\J	8g/J	.	16dd-X\	.	.	.	.	.
.	.	.	.	.	16b-\JJ	.	.	.	.	.
!	!	!LO:LB:g=original	!	!	!	!	!	!	!	!
=11	=11	=11	=11	=11	=11	=11	=11	=11	=11	=11
!LO:TX:a:t=P:problem=mixed beam	!	!LO:TX:a:t=P:problem=mixed beam	!	!	!	!	!	!	!	!
8c\L	6 4	8cc\L	4f/	.	4a-/	.	1r	.	1r	.
8c\	.	8cc\	.	.	.	.	.	.	.	.
8C/	n	8c/	4en/	.	4g/	.	.	.	.	.
8C/J	.	8c/J	.	.	.	.	.	.	.	.
4F\	.	4f\	8e/L	.	8f/L	.	.	.	.	.
.	.	.	8c/J	.	8c/J	.	.	.	.	.
4r	.	4r	4A-/	.	4A-/	.	.	.	.	.
=12	=12	=12	=12	=12	=12	=12	=12	=12	=12	=12
*	*	*	*	*	*	*	*2\right	*	*	*
8F\L	.	1r	2.f/	p	2r	.	2.f\	Sta-	2r	.
8G\	.	.	.	.	.	.	.	.	.	.
8A-\	6	.	.	.	.	.	.	.	.	.
8F\J	.	.	.	.	.	.	.	.	.	.
*	*	*	*	*	*	*	*	*	*2\right	*
8C/L	6 4	.	.	.	[2g/	.	.	.	[2g\	Sta-
8D/	.	.	.	.	.	.	.	.	.	.
8En/	6	.	4en/	.	.	.	4en\	-bat	.	.
8C/J	.	.	.	.	.	.	.	.	.	.
=13	=13	=13	=13	=13	=13	=13	=13	=13	=13	=13
8F\L	9	2c\	2.a-/	.	4g/]	.	2.a-\	Ma-	4g\]	.
8G\	.	.	.	.	.	.	.	.	.	.
8A-\	6	.	.	.	4f/	.	.	.	4f\	-bat
8F\J	.	.	.	.	.	.	.	.	.	.
8E-X\L	5 4	[2e-\	.	.	2b-/	.	.	.	[2b-\	Ma-
8F\	.	.	.	.	.	.	.	.	.	.
8G\	.	.	4g/	.	.	.	4g\	-ter	.	.
8E-\J	.	.	.	.	.	.	.	.	.	.
!LO:LB:g=original	!	!	!	!	!	!	!	!	!	!
=14	=14	=14	=14	=14	=14	=14	=14	=14	=14	=14
8A-\L	9	4e-\]	2.cc\	.	(4b-/	.	2.cc\	do-	4b-\]	.
8B-\	.	.	.	.	.	.	.	.	.	.
8c\	6	2f\	.	.	4a-/)	.	.	.	4a-\	-ter
8A-\J	.	.	.	.	.	.	.	.	.	.
8B-\L	-9	.	.	.	[2dd-X\	.	.	.	[2dd-X\	do-
8c\	.	.	.	.	.	.	.	.	.	.
8d-X\	6	4g\	4b-\	.	.	.	4b-\	-lo-	.	.
8B-\J	.	.	.	.	.	.	.	.	.	.
=15	=15	=15	=15	=15	=15	=15	=15	=15	=15	=15
8c\L	-9	2g\	2een\	.	4dd-\]	.	2en\	-ro-	4dd-\]	.
8B-\	.	.	.	.	.	.	.	.	.	.
8A-\	n	.	.	.	8cc\L	.	.	.	8cc\L	-lo-
8G\J	.	.	.	.	8b-\J	.	.	.	8b-\J	.
.	6	.	.	.	.	.	.	.	.	.
8F\L	7	2c\	4ee-X\	.	2an\	.	4e-X\	.	2an\	-ro-
8G-X\	-6	.	.	.	.	.	.	.	.	.
8F\	.	.	8dd-X\L	.	.	.	8d-X\L	.	.	.
8E-\J	6	.	8cc\J	.	.	.	8c\J	.	.	.
=16	=16	=16	=16	=16	=16	=16	=16	=16	=16	=16
8D-X/L	6	4.f\	4.dd-X\	.	4b-\	.	4.d-X\	.	4b-\	.
8C/	.	.	.	.	.	.	.	.	.	.
8D-/	6	.	.	.	2dd-X\	.	.	.	2dd-X\	.
8BB-/J	.	8B-/	8ff\	.	.	.	8f\	.	.	.
8C/L	9 4	2g\	2een\	.	.	.	2en\	.	.	.
8BB-/	.	.	.	.	.	.	.	.	.	.
8AA-/	6	.	.	.	8cc\L	.	.	.	8cc\L	.
8GG/J	n	.	.	.	8b-\J	.	.	.	8b-\J	.
=17	=17	=17	=17	=17	=17	=17	=17	=17	=17	=17
!LO:TX:a:t=P:problem=mixed beam	!	!	!LO:TX:a:t=P:problem=mixed beam	!	!	!	!	!	!	!
8FF/L	.	8c/L	8ff\L	.	8a-/L	.	2f\	.	2a-\	.
8F\	.	8c/	8f/	.	8a-/	.	.	.	.	.
8BBn/	7	8Bn/	8f/	.	8a-/	.	.	.	.	.
8BB/J	.	8B/J	8f/J	.	8a-/J	.	.	.	.	.
8C/L	n	4c/	4en/	.	4g/	.	4en\	-sa	4g\	-sa
8D-X/	.	.	.	.	.	.	.	.	.	.
8C/	.	4r	4r	.	4r	.	4r	.	4r	.
8BB/J	.	.	.	.	.	.	.	.	.	.
=18	=18	=18	=18	=18	=18	=18	=18	=18	=18	=18
!	!	!	!	!	!	!	!LO:TX:a:t=2	!	!	!
8AAn/L	6	8An/L	4r	.	4ff\	.	0r	.	4ff\	Jux-
8GG/	.	8G/	.	.	.	.	.	.	.	.
8AA/	5	8A/	4cc\	.	4ee-X\	.	.	.	4ee-X\	-ta
8FF/J	.	8F/J	.	.	.	.	.	.	.	.
8BB-/L	9 -	8B-/L	8cc\L	.	8dd-X\L	.	.	.	8dd-X\L	Cru-
8C/	.	8c/	8an\J	.	8cc\J	.	.	.	8cc\J	.
8D-X/	.	8d-X/	8b-/L	.	[4b-\	.	.	.	4b-\	-cem
8BB-/J	.	8B-/J	8f/J	.	.	.	.	.	.	.
=19	=19	=19	=19	=19	=19	=19	=19	=19	=19	=19
!LO:TX:a:t=P:problem=mixed beam	!	!LO:TX:a:t=P:problem=mixed beam	!	!	!LO:TX:a:t=P:problem=mixed beam	!	!	!	!	!
8EE-/L	-	8E-/L	8g-X/	.	8b-/L]	.	.	.	8b-\	la-
8E-\	.	8e-\	4b-/	.	8g-X/	.	.	.	8g-X/L	.
8D-X\	6	8d-X\	.	.	8f/	.	.	.	8f/J	.
8C\J	n6	8c\J	8an/	.	[>8ee-\J	.	.	.	8ee-\	-hri-
!LO:TX:a:t=P:problem=mixed beam	!	!LO:TX:a:t=P:problem=mixed beam	!	!	!	!	!	!	!	!
8BB-/L	4	8B-/L	2f/	.	8ee-\L]	.	.	.	8ee-\L	-mo-
8B-\	-	8b-\	.	.	16dd-X\L	.	.	.	16dd-X\L	.
.	.	.	.	.	16cc\JJ	.	.	.	16cc\JJ	.
8B-\	.	8b-\	.	.	8dd-\L	.	.	.	4dd-\	-sa
8A-\J	.	8a-\J	.	.	8dd-\J	.	.	.	.	.
!	!	!	!	!	!	!	!	!	!LO:LB:g=original	!
=20	=20	=20	=20	=20	=20	=20	=20	=20	=20	=20
!	!	!	!	!	!	!	!	!	!LO:TX:a:t=2	!
8G\L	6	8g\L	4r	.	4e-/	.	4e-\	Jux-	0r	.
8F\	.	8f\	.	.	.	.	.	.	.	.
8G\	-5	8g\	4b-/	.	4dd-X\	.	4dd-X\	-ta	.	.
8E-\J	.	8e-\J	.	.	.	.	.	.	.	.
8A-\L	9	8a-\L	8b-/L	.	8cc\L	.	8cc\L	Cru-	.	.
8B-\	6	8b-\	(8g/	.	8b-\J	.	8b-\J	.	.	.
8c\	6	8cc\	8a-/	.	4a-/	.	4a-\	-cem	.	.
8A-\J	.	8a-\J	8e-/J)	.	.	.	.	.	.	.
!	!	!LO:LB:g=original	!	!	!	!	!	!	!	!
=21	=21	=21	=21	=21	=21	=21	=21	=21	=21	=21
!LO:TX:a:t=P:problem=mixed beam	!	!	!	!	!LO:TX:a:t=P:problem=mixed beam	!	!	!	!	!
8D-X/L	.	8d-X\L	8f/	.	8a-/L	.	(8a-\	la-	.	.
8d-X\	.	8dd-X\	4a-/	.	8f/	.	8f\L)	.	.	.
8d-\	6	8cc\	.	.	8e-/	.	8e-\J	.	.	.
8B-\J	-6	8b-\J	8g/	.	8dd-X\J	.	8dd-X\	-chri-	.	.
!	!	!	!	!	!LO:LB:g=original	!	!LO:LB:g=original	!	!	!
8A-\L	4	8a-\L	4e-/	.	8dd-\L	.	8dd-\L	-mo-	.	.
8G\	.	8a-\	.	.	16cc\L	.	16cc\L	.	.	.
.	.	.	.	.	16b-\JJ	.	16b-\JJ	.	.	.
.	.	.	.	.	.	.	8qqb-/	.	.	.
8A-\	3	8a-\	4r	.	8cc\L	.	4cc\	-sa	.	.
8G\J	.	8g\J	.	.	8cc\J	.	.	.	.	.
!LO:LB:g=original	!	!	!	!	!	!	!	!	!	!
=22	=22	=22	=22	=22	=22	=22	=22	=22	=22	=22
8F\L	.	8f\L	4.aa-\	.	4.ccc\	.	4.a-\	dum	4.cc\	dum
8F\J	.	8f\J	.	.	.	.	.	.	.	.
4FF/	6 4	4F/	.	.	.	.	.	.	.	.
.	.	.	8bb-\	.	8ddd-X\	.	8b-\	pen-	8dd-X\	pen-
.	.	.	.	.	.	.	8qqa-/	.	8qqcc/	.
8r	.	8r	4.gg\	.	4.bb-\	.	4.g\	-de-	4.b-\	-de-
8G\	.	4g\	.	.	.	.	.	.	.	.
4En\	6 5	.	.	.	.	.	.	.	.	.
.	.	8en\	8aa-\	.	8ccc\	.	8a-\	-bat	8cc\	-bat
!	!	!	!LO:LB:g=original	!	!	!	!	!	!	!
=23	=23	=23	=23	=23	=23	=23	=23	=23	=23	=23
.	.	.	.	.	8qqbb-/	.	8qqg/	.	8qqcc/	.
8r	.	8r	2ff\	.	2aa-\	.	4.f\	fi-	4.a-\	fi-
!LO:TX:a:t=P:problem=mixed beam	!	!	!	!	!	!	!	!	!	!
8F\L	.	8f\L	.	.	.	.	.	.	.	.
8BBn/	7	8Bn\	.	.	.	.	.	.	.	.
8BB/J	.	8B\J	.	.	.	.	8f\	-li-	8a-\	-li-
4C/	n	4c\	4een\	.	4gg\	.	4en\	-us	4g\	-us
4r	.	4r	4r	.	4r	.	4r	.	4r	.
=24	=24	=24	=24	=24	=24	=24	=24	=24	=24	=24
8C/L	-	2e-X\	1cc	.	2r	.	2r	.	2.cc\	Dum
8D/	.	.	.	.	.	.	.	.	.	.
8E-/	6	.	.	.	.	.	.	.	.	.
8C/J	.	.	.	.	.	.	.	.	.	.
8F\L	6 5	2f\	.	.	[2dd\	.	2d\	dum	.	.
8G\	.	.	.	.	.	.	.	.	.	.
8A-\	.	.	.	.	.	.	.	.	4cc\	pen-
8F\J	.	.	.	.	.	.	.	.	.	.
=25	=25	=25	=25	=25	=25	=25	=25	=25	=25	=25
8F#X\L	6 5	2f#X\	2cc\	.	2dd\]	.	4d\	pen-	2cc\	-de-
8F#\	.	.	.	.	.	.	.	.	.	.
8F#\	.	.	.	.	.	.	4d\	-de-	.	.
8F#\J	.	.	.	.	.	.	.	.	.	.
8G\L	n	[2g\	4bn\	.	4dd\	.	(4d\	-bat	4bn\	-bat
8G\	.	.	.	.	.	.	.	.	.	.
8E-\	6	.	4cc\	.	[4ee-\	.	4e-\)	.	4cc\	.
8F#\J	.	.	.	.	.	.	.	.	.	.
=26	=26	=26	=26	=26	=26	=26	=26	=26	=26	=26
!LO:TX:a:t=P:problem=mixed beam	!	!	!	!	!	!	!	!	!	!
8G\L	6 4	2g\]	4cc\	.	4ee-\]	.	4.d\	fi-	4cc\	fi-
8G\	.	.	.	.	.	.	.	.	.	.
8GG/	n	.	4bn\	.	4dd\	.	.	.	8.bn\	-li-
8GG/J	.	.	.	.	.	.	8d\	-li-	.	.
.	.	.	.	.	.	.	.	.	16cc\	.
8C/	.	8c\	8r	.	8r	.	4c\	-us	4cc\	-us
8r	.	8r	8cc\	.	8ee-\	.	.	.	.	.
8E-\	6	8e-\	8r	.	8r	.	4r	.	4r	.
8r	.	8r	8cc\	.	8ee-\	.	.	.	.	.
=27	=27	=27	=27	=27	=27	=27	=27	=27	=27	=27
!	!	!	!	!	!	!	!LO:TX:a:t=2	!	!LO:TX:a:t=1	!
8F\	.	8f\	8r	.	8r	.	0r	.	1r	.
8r	.	8r	8f/L	.	8a-/L	.	.	.	.	.
8G\	n	8g\	8e-/	.	8g/	.	.	.	.	.
8r	.	8r	8d/J	.	8Bn/J	.	.	.	.	.
!	!	!	!LO:TX:a:t=P:problem=mixed beam	!	!LO:TX:a:t=P:problem=mixed beam	!	!	!	!	!
8A-\	.	8a-X\	8c/L	.	8c/L	.	.	.	.	.
8r	.	8r	8cc\J	.	8ee-\J	.	.	.	.	.
8E-\	6	8e-\	8r	.	8r	.	.	.	.	.
8r	.	8r	8cc\	.	8ee-\	.	.	.	.	.
=28	=28	=28	=28	=28	=28	=28	=28	=28	=28	=28
8F\	.	8f\	8r	.	8r	.	.	.	2r	.
8r	.	8r	8f/L	.	8a-/L	.	.	.	.	.
8G\	n	8g\	8e-/	.	8g/	.	.	.	.	.
8r	.	8r	8d/J	.	8Bn/J	.	.	.	.	.
8C/L	.	8c\L	2cc\	.	4c/	.	.	.	[2cc\	Sta-
8D/	.	8d\	.	.	.	.	.	.	.	.
8E-/	.	8e-\	.	.	4r	.	.	.	.	.
8C/J	.	8c\J	.	.	.	.	.	.	.	.
!LO:LB:g=original	!	!	!	!	!	!	!	!	!	!
=29	=29	=29	=29	=29	=29	=29	=29	=29	=29	=29
8GG/L	4	8G/L	4cc\	.	2.dd\	.	2.d\	Sta-	4cc\]	.
8AA-/	.	8A-/	.	.	.	.	.	.	.	.
8BBn/	6	8Bn/	4bn\	.	.	.	.	.	4bn\	-bat
8GG/J	.	8G/J	.	.	.	.	.	.	.	.
8C\L	9	8c\L	2ee-\	.	.	.	.	.	2ee-\	Ma-
8D\	.	8d\	.	.	.	.	.	.	.	.
8E-\	6	8e-\	.	.	(4cc\	.	4c\	-bat	.	.
8C\J	.	8c\J	.	.	.	.	.	.	.	.
!	!	!LO:LB:g=original	!	!	!	!	!	!	!LO:LB:g=original	!
=30	=30	=30	=30	=30	=30	=30	=30	=30	=30	=30
8BB-X/L	4	2B-/	4ee-\	.	2ff\)	.	2.f\	Ma-	4ee-\	.
8C/	.	.	.	.	.	.	.	.	.	.
8D/	8	.	4dd\	.	.	.	.	.	4dd\	-ter
8BB-/J	.	.	.	.	.	.	.	.	.	.
8E-\L	9	4B-/	2gg\	.	4ff\	.	.	.	2gg\	do-
8F\	.	.	.	.	.	.	.	.	.	.
8G\	6	4c/	.	.	(4ee-\	.	4e-\	-ter	.	.
8E-\J	.	.	.	.	.	.	.	.	.	.
=31	=31	=31	=31	=31	=31	=31	=31	=31	=31	=31
8F\L	5	4c\	4gg\	.	2aa-X\)	.	2.a-\	do-	4gg\	.
8G\	.	.	.	.	.	.	.	.	.	.
8A-\	6	2.f\	4ff\	.	.	.	.	.	4ff\	-lo-
8F\J	.	.	.	.	.	.	.	.	.	.
8G\L	n	.	2bn\	.	4aa-\	.	.	.	2bn\	-ro-
8F\	.	.	.	.	.	.	.	.	.	.
8E-\	6	.	.	.	8gg\L	.	8g\L	-lo-	.	.
8D\J	.	.	.	.	8ff\J	.	8f\J	.	.	.
=32	=32	=32	=32	=32	=32	=32	=32	=32	=32	=32
8C\L	.	8e-\L	8cc\L	.	8ee-\L	.	2e-\	-ro-	2cc\	.
8C\	.	8e-\	8cc\	.	8ee-\	.	.	.	.	.
8F#X\	7	8a-\	8cc\	.	8ee-\	.	.	.	.	.
8F#\J	.	8a-\J	8cc\J	.	8ee-\J	.	.	.	.	.
!LO:TX:a:t=P:problem=mixed beam	!	!	!	!	!	!	!	!	!	!
8G\L	n	4g\	4bn\	.	4dd\	.	4d\	-sa	4bn\	-sa
8GG/	.	.	.	.	.	.	.	.	.	.
8G\	.	4r	4r	.	4r	.	4r	.	4r	.
8Fn\J	.	.	.	.	.	.	.	.	.	.
!	!	!	!	!	!LO:LB:g=original	!	!LO:LB:g=original	!	!	!
=33	=33	=33	=33	=33	=33	=33	=33	=33	=33	=33
*2\right	*	*	*	*	*	*	*	*	*	*
2En\	6 -5	2.c\	4ccc\	.	2r	.	4cc\	Jux-	2r	.
.	.	.	4bb-\	.	.	.	4b-\	-ta	.	.
2F\	7 -3	.	4aa-X\	.	4ff\	.	4a-X\	Cru-	4ff\	Jux-
.	.	4f\	4aan\	.	4ee-\	.	4an\	-cem	4ee-\	-ta
=34	=34	=34	=34	=34	=34	=34	=34	=34	=34	=34
2BB-/	.	2f\	4bb-\	.	4dd-X\	.	4b-\	Jux-	4dd-X\	Cru-
.	.	.	4aa-\	.	4ddn\	.	4a-\	-ta	4ddn\	-cem
2E-\	.	[2e-\	4gg-X\	.	4ee-\	.	4g-X\	Cru-	4ee-\	la-
.	.	.	4ggn\	.	4dd-X\	.	4gn\	-cem	4dd-X\	-chri-
=35	=35	=35	=35	=35	=35	=35	=35	=35	=35	=35
2AA-/	7	2e-\]	4aa-\	.	2cc\	.	4a-\	la-	2cc\	-mo-
.	.	.	4gg\	.	.	.	4g\	-chri-	.	.
2D-X\	7	[2d-X\	2ff\	.	4dd-X\	.	2f\	-mo-	4dd-X\	.
.	.	.	.	.	4cc\	.	.	.	4cc\	.
=36	=36	=36	=36	=36	=36	=36	=36	=36	=36	=36
2GG/	7	2d-\]	4gg\	.	2b-\	.	4g\	.	2b-\	.
.	.	.	4ff\	.	.	.	4f\	.	.	.
2C/	n	4c\	2een\	.	4cc\	.	2en\	.	4cc\	.
.	7	4r	.	.	4b-\	.	.	.	4b-\	.
!	!	!	!LO:LB:g=original	!	!	!	!	!	!	!
=37	=37	=37	=37	=37	=37	=37	=37	=37	=37	=37
!	!	!	!LO:TX:a:t=P:problem=mixed beam	!	!	!	!	!	!	!
.	.	.	.	.	.	.	.	.	8qqb-/	.
8C/L	6 2	8d\L	8ff\L	.	8a-/L	.	2f\	.	2a-\	.
8BBn/	7	8d\	8f/	.	8a-/	.	.	.	.	.
8BB/	.	8d\	8f/	.	8a-/	.	.	.	.	.
8BB/J	.	8d\J	8f/J	.	8a-/J	.	.	.	.	.
!	!	!	!	!	!LO:TX:a:t=P:problem=mixed beam	!	!	!	!	!
4C/	n	4c\	4en/	.	8g/L	.	4en\	-sa	4g\	-sa
.	.	.	.	.	8bb-\	.	.	.	.	.
4r	.	4r	4r	.	8gg\	.	4r	.	4r	.
.	.	.	.	.	8een\J	.	.	.	.	.
!LO:LB:g=original	!	!	!	!	!	!	!	!	!	!
=38	=38	=38	=38	=38	=38	=38	=38	=38	=38	=38
8r	.	8r	8r	.	8c/L	.	8r	.	8r	.
8C/L	7	8c\L	8g/L	.	(8b-/	.	8g\L	dum	8b-\L	dum
8C/	6 4	8c\	8f/	.	8a-/	.	8f\J	.	8a-\J	.
8C/J	n	8c\J	8e-/J	.	8g/J)	.	8en\	pen-	8a-\	pen-
!	!	!	!	!	!LO:TX:a:t=P:problem=mixed beam	!	!	!	!LO:LB:g=original	!
4C/	6 4	4c\	4f/	.	8a-/L	.	8f\	-de-	8g\L	-de-
.	.	.	.	.	8ccc\	.	8f\	-bat	8een\	.
4r	.	4r	4r	.	8aa-\	.	4r	.	8ff\J	.
.	.	.	.	.	8ff\J	.	.	.	8b-\	-bat
=39	=39	=39	=39	=39	=39	=39	=39	=39	=39	=39
!	!	!	!	!	!LO:TX:a:t=P:problem=mixed beam	!	!	!	!	!
8r	.	8r	8r	.	8c/L	.	8r	.	8r	.
8C/L	6 4	8c\L	8a-/L	.	8cc\	.	8a-\L	dum	8b-\L	dum
8C/	7	8c\	8g/	.	8b-\	.	8g\J	.	8a-\J	.
8C/J	6 4	8c\J	8f/J	.	8a-\J	.	8f\	pen-	8a-\	pen-
!	!	!	!LO:TX:a:t=P:problem=mixed beam	!	!LO:TX:a:t=P:problem=mixed beam	!	!	!	!	!
8C/L	n	8c\L	8en/L	.	8g/L	.	8en\L	-de-	8g\L	-de-
8BB-/	-	8d-X\	8een\J	.	8gg\	.	8g\	.	8een\	.
!	!	!	!LO:TX:a:t=P:problem=mixed beam	!	!	!	!	!	!	!
8AA-/	6	8c\	8ff\L	.	8aa-\	.	8a-\J	.	8ff\J	.
8BB-/J	.	8f\J	8g/J	.	8b-/J	.	8f\	-bat	8b-\	-bat
=40	=40	=40	=40	=40	=40	=40	=40	=40	=40	=40
.	.	.	.	.	.	.	.	.	8qqb-/	.
8C/L	6 4	8c\L	8f/L	.	8a-/L	.	4f\	fi-	4a-/	fi-
8C/	.	8c\	8f/	.	8a-/	.	.	.	.	.
8C/	n	8c\	8en/	.	8g/	.	8.en\L	-li-	8.g/L	-li-
8C/J	.	8c\J	8e/J	.	8g/J	.	.	.	.	.
.	.	.	.	.	.	.	16f\Jk	.	16f/Jk	.
!	!	!	!	!	!	!	!LO:LB:g=original	!	!	!
8D-X/	.	8d-X\	8r	.	8r	.	4f\	-us	4f/	-us
8r	.	8r	8ff\	.	8aa-\	.	.	.	.	.
8AA-/	6	8A-/	8r	.	8r	.	4r	.	4r	.
8r	.	8r	8ff\	.	8aa-\	.	.	.	.	.
!	!	!LO:LB:g=original	!	!	!	!	!	!	!	!
=41	=41	=41	=41	=41	=41	=41	=41	=41	=41	=41
8BB-/	-	8B-/	8r	.	8r	.	1r	.	8r	.
!	!	!	!	!	!LO:TX:a:t=P:problem=mixed beam	!	!	!	!	!
8r	.	8r	8b-/L	.	8dd-X\L	.	.	.	8dd-X\L	Do-
8C/	n	8c/	8a-/	.	8cc\	.	.	.	8cc\J	.
8r	.	8r	8g/J	.	8en/J	.	.	.	8en/	-lo-
!	!	!	!LO:TX:a:t=P:problem=mixed beam	!	!LO:TX:a:t=P:problem=mixed beam	!	!	!	!	!
8D-X/	.	8d-X/	8f/L	.	8f/L	.	.	.	16.f/LL	-ro-
.	.	.	.	.	.	.	.	.	32en/JJk	.
8r	.	8r	8ff\J	.	8aa-\J	.	.	.	4f/	-sa
8AA-/	6	8A-/	8r	.	8r	.	.	.	.	.
!	!	!	!	!	!	!	!	!	!LO:N:vis=4	!
8r	.	8r	8ff\	.	8aa-\	.	.	.	8r	.
=42	=42	=42	=42	=42	=42	=42	=42	=42	=42	=42
!	!	!	!	!	!	!	!	!	!LO:TX:a:t=1	!
8BB-/	-	8B-/	8r	.	8r	.	8r	.	1r	.
!	!	!	!	!	!LO:TX:a:t=P:problem=mixed beam	!	!	!	!	!
8r	.	8r	8b-/L	.	8dd-X\L	.	8dd-X\L	la-	.	.
8C/	n	8c/	8a-/	.	8cc\	.	8cc\J	.	.	.
8r	.	8r	8g/J	.	8en/J	.	8en\	-chri-	.	.
4FF/	.	4E-/	4f/	.	4f/	.	16f\LL	-mo-	.	.
.	.	.	.	.	.	.	16e\JJ	.	.	.
.	.	.	.	.	.	.	8f\	-sa	.	.
4r	.	4r	4r	.	4r	.	4r	.	.	.
!	!	!	!	!	!LO:LB:g=original	!	!	!	!	!
=43	=43	=43	=43	=43	=43	=43	=43	=43	=43	=43
8F\L	.	8f\L	1f	.	2r	.	2.f\	dum	2r	.
8G\	.	8g\	.	.	.	.	.	.	.	.
8A-\	.	8a-\	.	.	.	.	.	.	.	.
8F\J	.	8f\J	.	.	.	.	.	.	.	.
8BB-/L	6 -5	8B-\L	.	.	2g/	.	.	.	(2a-\	Dum
8C/	.	8c\	.	.	.	.	.	.	.	.
8D-X/	.	8d-X\	.	.	.	.	4f\	pen-	.	.
8BB-/J	.	8B-\J	.	.	.	.	.	.	.	.
=44	=44	=44	=44	=44	=44	=44	=44	=44	=44	=44
8BBn/L	6 5	8Bn/L	2f/	.	2.g/	.	2f\	-de-	4g\)	.
8BB/	.	8B/	.	.	.	.	.	.	.	.
8BB/	.	8B/	.	.	.	.	.	.	4g\	pen-
8BB/J	.	8B/J	.	.	.	.	.	.	.	.
8C/L	n	8c/L	4en/	.	.	.	4en\	-bat	4g\	-de-
8BB-X/	.	8B-X/	.	.	.	.	.	.	.	.
8AA-/	6	8A-/	4f/	.	4a-/	.	4f\	.	4a-\	-bat
8BB-/J	.	8B-/J	.	.	.	.	.	.	.	.
!LO:LB:g=original	!	!	!	!	!	!	!	!	!LO:LB:g=original	!
=45	=45	=45	=45	=45	=45	=45	=45	=45	=45	=45
2C/	6 4	2c\	4f/	.	2g/	.	4.f\	fi-	4.g\	fi-
.	6 5	.	4en/	.	.	.	.	.	.	.
.	.	.	.	.	.	.	8en\	-li-	8g\	-li-
!	!	!	!LO:TX:a:t=P:problem=mixed beam	!	!	!	!	!	!	!
8F\	.	8f\	8f/L	.	8r	.	4f\	-us	4f\	-uſ
8r	.	8r	8ff\J	.	8aa-\	.	.	.	.	.
8AA-/	6	8A-/	8r	.	8r	.	4r	.	4r	.
!	!	!	!	!	!	!	!	!	!LO:TX:a:t=P:problem=koniec partii	!
8r	.	8r	8ff\	.	8aa-\	.	.	.	.	.
=46	=46	=46	=46	=46	=46	=46	=46	=46	=46	=46
!	!	!	!	!	!	!	!LO:TX:a:t=2	!	!	!
8BB-/	-	8B-/	8r	.	8r	.	0r	.	1ryy	.
!	!	!	!	!	!LO:TX:a:t=P:problem=mixed beam	!	!	!	!	!
8r	.	8r	8b-/L	.	8dd-X\L	.	.	.	.	.
8C/	n	8c/	8a-/	.	8cc\	.	.	.	.	.
8r	.	8r	8g/J	.	8en/J	.	.	.	.	.
!	!	!	!LO:TX:a:t=P:problem=mixed beam	!	!LO:TX:a:t=P:problem=mixed beam	!	!	!	!	!
8D-X/	.	8d-X/	8f/L	.	8f/L	.	.	.	.	.
8r	.	8r	8ff\J	.	8aa-\J	.	.	.	.	.
8AA-/	6	8A-/	8r	.	8r	.	.	.	.	.
8r	.	8r	8ff\	.	8aa-\	.	.	.	.	.
=47	=47	=47	=47	=47	=47	=47	=47	=47	=47	=47
8BB-/	-	8B-/	8r	.	8r	.	.	.	1ryy	.
!	!	!	!	!	!LO:TX:a:t=P:problem=mixed beam	!	!	!	!	!
8r	.	8r	8b-/L	.	8dd-X\L	.	.	.	.	.
8C/	n	8c/	8a-/	.	8cc\	.	.	.	.	.
8r	.	8r	8g/J	.	8en/J	.	.	.	.	.
4FF/	.	4F/	4f/	.	4f/	.	.	.	.	.
4r	.	4r	4r	.	4r	.	.	.	.	.
==	==	==	==	==	==	==	==	==	==	==
*-	*-	*-	*-	*-	*-	*-	*-	*-	*-	*-
!!!system-decoration: [g1][g2]s6
!!!RDF**kern: > = above
!!!ENC: Zofia Niedbalska
!!!END: 2020-11-30
!!!ENC: Berenika Jozajtis
!!!END: 2020-06-10
